X:1
T:[ID 5-58]
T:[ID 5-58]
T:Bezeichnung standardisiert: Overb\"orscher Tanz; Overb\"oerscher Tantz In dieser Quelle auch als: Notat
T:Urheber unbekannt Datum in der hier transkribierten schriftlichen Quelle: 1773
C:Urheber unbekannt
C:Datum in der hier transkribierten schriftlichen Quelle: 1773
L:1/8
M:3/4
K:C
V:1 treble 
V:1
 A | d2 e | f2 g | a2 b | a2 g | fe d | ed c | dA/G/F/E/ | D3 :: a | ff/e/f/d/ | cA a | ff/e/f/d/ | %13
 a/g/ e d | a/g/ e d | a/g/ e d | A/g/ e d :| %17

